X: 1
T: Cherrytree, The
C: Toon Van Mierlo
Z: zmoon
S: https://thesession.org/tunes/21799#setting43712
R: jig
M: 6/8
L: 1/8
K: Gmaj
G2d cBG|GFG AFD|G2d AGG|dee fgg||G2d cBG|
GFG AFD|1 Bcc g2B|Bcg afd:|2 Bcc e2B|AGE GAF||
|:EBe dBe|deg dBe|fBg fBf|fgg gaa|
[1 gaf fge|fgd edB|Bde fgA|ABd AGF:|
[2 b2a age|fge ede|dfa ede|dBA AGF||

